X:1
T:Romeo and Juliet
C:Mark Knopfler
L:1/8
M:4/4
K:F
V:1 treble nm="Alto Saxophone" snm="Alto Sax."
V:1
|:"^Medium / steady beat""Gm" (f2 e2 c2 d2 |"C9/E" G2 A2 C2)"F" c2 |"Bb/D" c4 B2 A2 | %3
w: |||
"C6" A4"C" G4 :|"F" A>C F(A A>)C"C" F/A/G/E/ |"Bb" F2 D(F F2)"C" E/F/G/C/ | %6
w: |||
"F" A>C F(A A>)C"C" F/A/G/E/ |"Bb" F2 D(F F)F"C" G2 |"F" A>C F(A A2)"C" GE |"Bb" F2 D(F F2)"C" AG | %10
w: ||||
"F/C" A>C F(A A2) F/A/G/E/ |"Bb" F2 D(F F2)"C" G2 |:S"F"zC AA A/A/A"C"z/F/F/F/ | %13
w: ||A love struck Ro- me- o sings a street|
"Dm" FF/F/ (FD) z4"C" |"F"zA/A/ G/F/F/F/ F2 z2 |"Dm"zF/D/ FF"Bb" G/D/D z2 |"C"zC GG GC"Bb"zC/C/ | %17
w: suss se- re- nade _|lay- ing ev- 'ry- bo- dy low|with a love song that he made.|Finds a con- ve- nient street light|
"C" GG G/F/(A"F" A)A, A,/A,/A, |"Bb"z2zD/C/ FDzC/A,/ |"C" C(A, G,2) z2"^To Coda" z2 || %20
w: steps out of the shade, _ says some- thing like|you and me babe, how a-|bout it? _|
"F""_(Spoken:) Juliet says, hey, it's Romeo," z8"C" | %21
w: |
"Dm""_you nearly gave me a heart attack." z8"C" |"F"z>F A/A/G/F/ AF"C" AF/F/ | %23
w: |He's un- der- neath the win- dow, she's sing- ing,|
"Dm"zF F>D"Bb" DF D2 |"C"z2z/G/G/G/ A/G/F"Bb" F2 |"C" G/G/G/G/ (3AGF"F" C2 z2 | %26
w: hey la my boy- friend's back.|You should- n't come a- round here,|sing- ing up at peo- ple like that|
"Bb"zD/B,/ B,2 F/F/D/D/ FF/(F/ |"Csus4" F)"C" C3z2zA/A/ ||"F" A2z2"C"z>E FG | %29
w: an- y- way, what you gon- na do a- bout|_ it? Ju- li-|et, the dice were|
"Dm" GAA"C"G"Bbmaj7" (GF)z/F/"C"G |"F" A2 z2"C" z2 G<G |"Dm" AB/(A/ A)"C"G"Bb" F>F"C" GG | %32
w: load- ed from the start, _ and I|bet you ex-|plo- ded in _ my heart, and I for-|
"F" A2z"C"A"Bb" AF z2 |"Dm"z2z/D/F/F/"Bb" D2 z2 |"Gm" z2 G/G/G/G/ G/F/Ez"F/A"A/A/ | %35
w: get, I for- get|the mov- ie song.|When you gon- na re- al- is it was|
"Bb" BF/F/ B"C"A"Dm" F2"C"zA/G/ |"F" F4 z2"C" z2 |"Bb" z4 z2"C" z2 |"F/C" z4 z2 z2 |1,2 %39
w: just that the time was wrong, Ju- li-|et.|||
"Bb" z4 z2"C" z2 :|3"Bb" z4 z2"^D.S. al Coda""C" z2 |:O"Bbmaj7" z2 z2 z2 z2 |"C9" z2 z2"C" z2 z2 :| %43
w: ||||

